X:508
T:Mrs Hume's Strathspey
C:Colin Hume
L:1/8
M:4/4
S:Colin Hume's website,  colinhume.com  - chords can also be printed below the stave.
Q:1/4=112
H:For the dance by Anselm Lingnau, 2000
K:G
P:A
|: "G"B<d d>e "/"d>c B<G | "F"A<c c>d "/"c>_B A<=F |\
"G"B<d d>e "/"d>c B<G | "D7"A2 d>c "G"B<G G2 :|
P:B
"G"d2 "D/F#"d>c "Em"B2 (3GAB | "F"c2 "C/E"c>B "D"A2 (3FGA |\
"Em"B2 B>A "C"G<E "C/B"E2 | "Am"A>B "A7/C#"A>G "D"F<D D2 |
"G"d2 "D/F#"d>c "Em"B2 (3GAB | "F"c2 "C/E"c>B "D"A2 (3FGA |\
"Em"B2 B>A "C"G<E "C/B"E2 | "G"D<G "D7"B>A "G"G4 |
P:C
|: "D"F<A A>B "/"A2 G/F/E/D/ | "G"G<B B>c "/"B2 A/G/F/E/ |\
"D"D<A A>B "/"c<A d>c | "G"B<G "D7"A<F "G"G4 :|
P:D
"C"e2 e>f "G/B"g2d2 | "Am"c2 c>d "Em/G"e2B2 |\
"F"A2A>B "C/E"c2G2 | "Dm"=F2 "D7"d>c "G"B2 "D7"A2 |
"G"B<d d>e "/"d>c B<G | "F"A<c c>d "/"c>_B A<=F |\
"G"B<d d>B "C"c<e e>c | "G"d<g "D7"f<a "G"g4 |]

